bridge_ui/src/icons/bsc.svg

<svg width="40" height="40" viewBox="0 0 40 40" fill="none" xmlns="http://www.w3.org/2000/svg">
<path d="M20.3025 0L9.67897 6.12683L13.5847 8.39024L20.3025 4.52683L27.0204 8.39024L30.9261 6.12683L20.3025 0Z" fill="#F0B90B"/>
<path d="M27.0204 11.5902L30.9261 13.8537V18.3805L24.2083 22.2439V29.9707L20.3025 32.2341L16.3968 29.9707V22.2439L9.67897 18.3805V13.8537L13.5847 11.5902L20.3025 15.4537L27.0204 11.5902Z" fill="#F0B90B"/>
<path d="M30.9261 21.5805V26.1073L27.0204 28.3707V23.8439L30.9261 21.5805Z" fill="#F0B90B"/>
<path d="M26.9814 31.5707L33.6992 27.7073V19.9805L37.605 17.7171V29.9707L26.9814 36.0976V31.5707Z" fill="#F0B90B"/>
<path d="M33.6992 12.2537L29.7935 9.99025L33.6992 7.72683L37.605 9.99025V14.5171L33.6992 16.7805V12.2537Z" fill="#F0B90B"/>
<path d="M16.3968 37.7366V33.2098L20.3025 35.4732L24.2083 33.2098V37.7366L20.3025 40L16.3968 37.7366Z" fill="#F0B90B"/>
<path d="M13.5847 28.3707L9.67897 26.1073V21.5805L13.5847 23.8439V28.3707Z" fill="#F0B90B"/>
<path d="M20.3025 12.2537L16.3968 9.99025L20.3025 7.72683L24.2083 9.99025L20.3025 12.2537Z" fill="#F0B90B"/>
<path d="M10.8116 9.99025L6.90586 12.2537V16.7805L3.00012 14.5171V9.99025L6.90586 7.72683L10.8116 9.99025Z" fill="#F0B90B"/>
<path d="M3.00012 17.7171L6.90586 19.9805V27.7073L13.6237 31.5707V36.0976L3.00012 29.9707V17.7171Z" fill="#F0B90B"/>
</svg>

<svg width="40" height="40" fill="none" xmlns="http://www.w3.org/2000/svg"><path d="M20.302 0 9.68 6.127l3.906 2.263 6.717-3.863L27.02 8.39l3.906-2.263L20.303 0ZM27.02 11.59l3.906 2.264v4.527l-6.718 3.863v7.727l-3.905 2.263-3.906-2.263v-7.727L9.679 18.38v-4.527l3.906-2.264 6.717 3.864 6.718-3.864Z" fill="#F0B90B"/><path d="M30.926 21.58v4.527l-3.906 2.264v-4.527l3.906-2.264Z" fill="#F0B90B"/><path d="m26.981 31.57 6.718-3.863V19.98l3.906-2.263v12.254l-10.624 6.127V31.57ZM33.7 12.254 29.792 9.99 33.7 7.727l3.906 2.263v4.527l-3.906 2.264v-4.527ZM16.397 37.737V33.21l3.905 2.263 3.906-2.263v4.527L20.303 40l-3.906-2.263ZM13.585 28.37l-3.906-2.263v-4.526l3.906 2.263v4.527ZM20.302 12.254 16.397 9.99l3.905-2.263 3.906 2.263-3.905 2.264ZM10.812 9.99l-3.906 2.264v4.527L3 14.517V9.99l3.906-2.263 3.906 2.263Z" fill="#F0B90B"/><path d="m3 17.717 3.906 2.264v7.726l6.718 3.864v4.527L3 29.97V17.717Z" fill="#F0B90B"/></svg>
